X:1
T:Title
%%score { ( 1 3 ) | 2 }
L:1/8
M:3/4
K:G
V:1 treble nm="Grand Piano"
V:3 treble 
V:2 bass 
V:1
 z2 z[Q:1/4=84] D D>G | B3 c B>A | G4 G2 | [FA]3 [FA] [GB]>[Ac] |[M:3/8] B3 | DD>G | %6
[M:3/4] B3 c B>A | G4 B2 | A3 A B>^c |[M:3/8] [Fd]3 | [Fd][Fd]>[Fe] |[M:3/4] [Gd]3 [GB] [GB]>A | %12
 G4 G2 | [FA]3 [FA] [GB]>[Ac] |[M:3/8] B3 | dd>e |[M:3/4] d3 B [DGB]>[CFA] | [B,EG]4 [EGc]2 | %18
[M:27/32] z/4 z/4 z/4 z/4 z/4 z/4 z/4 z/4 z/4 z/4 z/4 z/4 z/4 z/4 z/ [CA]/4-[CA]/4-[CA]/4-[CA]/4-[CA]/4-[CA]/4-[CA]/-<[CA]/ z/4 | %19
[M:3/8] [B,DG]3 |] %20
V:2
 z2 z [G,B,] [G,B,]>[G,B,] | [G,D]3 [G,E] [G,D]>[G,C] | [G,B,]4 [G,B,]2 | %3
 [D,D]3 [D,D] [D,D]>[D,D] |[M:3/8][K:treble] [G,DG]3 | [G,B,][G,B,]>[G,B,] | %6
[M:3/4] [G,D]3 [G,E] [G,D]>[G,C] | [G,B,]4 [G,DG]2 | [A,DF]3 [A,DF] [A,G]>[A,G] | %9
[M:3/8][K:bass] [D,A,]3 | [D,D][D,D]>[D,C] |[M:3/4] [G,B,]3 [G,D] [D,D]>[D,CD] | [G,B,D]4 [G,B,]2 | %13
 [D,D]3 [D,D] [D,D]>[D,D] |[M:3/8][K:treble] [G,DG]3 | [G,B,G][G,B,G]>[G,CG] | %16
[M:3/4] [G,B,G]3 [G,DG][K:bass] D,>D, | E,4 C,2 | %18
[M:27/32] D,/4-D,/4-D,/4-D,/4-D,/4-D,/4-D,/4-D,/4-D,/-<D,/D,/-<D,/D,/4-D,/4-D,/4-D,/4-D,/-<D,/D,3/4 | %19
[M:3/8] G,,3 |] %20
V:3
 x6 | x6 | x6 | x6 |[M:3/8] x3 | x3 |[M:3/4] x6 | x6 | x6 |[M:3/8] x3 | x3 |[M:3/4] x6 | x6 | x6 | %14
[M:3/8] x3 | x3 |[M:3/4] x6 | x6 | %18
[M:27/32] [DGB]/4-[DGB]/4-[DGB]/4-[DGB]/4-[DGB]/4-[DGB]/4-[DGB]/4-[DGB]/4-[DGB]/-<[DGB]/[B,DG]/-<[B,DG]/D/4-D/4-D/4-D/4-D/-<D/[B,DG]3/4 | %19
[M:3/8] x3 |] %20

